icons/split-view-24.svg

<svg width="24" height="24" viewBox="0 0 24 24" fill="none" xmlns="http://www.w3.org/2000/svg">
<path d="M3.75 2H20.25C21.216 2 22 2.784 22 3.75V20.25C22 20.7141 21.8156 21.1592 21.4874 21.4874C21.1592 21.8156 20.7141 22 20.25 22H3.75C3.28587 22 2.84075 21.8156 2.51256 21.4874C2.18437 21.1592 2 20.7141 2 20.25V3.75C2 2.784 2.784 2 3.75 2ZM3.5 3.75V20.25C3.5 20.388 3.612 20.5 3.75 20.5H11V3.5H3.75C3.6837 3.5 3.62011 3.52634 3.57322 3.57322C3.52634 3.62011 3.5 3.6837 3.5 3.75ZM12.5 20.5H20.25C20.3163 20.5 20.3799 20.4737 20.4268 20.4268C20.4737 20.3799 20.5 20.3163 20.5 20.25V3.75C20.5 3.6837 20.4737 3.62011 20.4268 3.57322C20.3799 3.52634 20.3163 3.5 20.25 3.5H12.5V20.5Z" fill="black"/>
</svg>

<svg xmlns="http://www.w3.org/2000/svg" width="24" height="24" viewBox="0 0 24 24"><path d="M3.75 2h16.5c.966 0 1.75.784 1.75 1.75v16.5c0 .464-.184.909-.513 1.237A1.746 1.746 0 0 1 20.25 22H3.75c-.464 0-.909-.184-1.237-.513A1.746 1.746 0 0 1 2 20.25V3.75C2 2.784 2.784 2 3.75 2ZM3.5 3.75v16.5c0 .138.112.25.25.25H11v-17H3.75a.25.25 0 0 0-.25.25Zm9 16.75h7.75a.25.25 0 0 0 .25-.25V3.75a.25.25 0 0 0-.25-.25H12.5v17Z"/></svg>
